app/icons/friends.svg

﻿<svg xmlns="http://www.w3.org/2000/svg" xmlns:xlink="http://www.w3.org/1999/xlink" viewBox="0 0 50 50" version="1.1" width="50" height="50">
<g id="surface1">
<path style=" " d="M 19 2 C 16.25 2 14 4.25 14 7 C 14 9.746094 16.25 12 19 12 C 21.75 12 24 9.746094 24 7 C 24 4.25 21.75 2 19 2 Z M 30 2 C 27.25 2 25 4.25 25 7 C 25 9.75 27.25 12 30 12 C 32.75 12 35 9.75 35 7 C 35 4.25 32.75 2 30 2 Z M 19 4 C 20.667969 4 22 5.328125 22 7 C 22 8.667969 20.667969 9.996094 19 10 C 17.332031 9.996094 16 8.667969 16 7 C 16 5.328125 17.332031 4 19 4 Z M 30 4 C 31.667969 4 33 5.332031 33 7 C 33 8.667969 31.667969 10 30 10 C 28.332031 10 27 8.667969 27 7 C 27 5.332031 28.332031 4 30 4 Z M 37.144531 11.003906 C 36.570313 10.976563 36.015625 11.113281 35.546875 11.375 C 35.515625 11.386719 35.464844 11.410156 35.402344 11.4375 C 35.277344 11.496094 35.101563 11.578125 34.886719 11.675781 C 34.457031 11.875 33.878906 12.136719 33.261719 12.417969 C 32.027344 12.980469 30.636719 13.613281 29.976563 13.910156 C 29.847656 13.972656 29.714844 14 29.566406 14 L 14.625 14 C 13.363281 14 12.117188 14.636719 11.453125 15.8125 C 11.425781 15.859375 11.402344 15.90625 11.386719 15.957031 L 9.390625 21.4375 C 8.882813 22.417969 8.875 23.59375 9.386719 24.578125 L 9.347656 24.496094 L 11.597656 30 C 11.609375 30.03125 11.625 30.058594 11.640625 30.085938 C 12.136719 31.039063 13.015625 31.667969 14 31.902344 L 14 44.707031 C 14 46.628906 15.699219 48 17.5 48 C 18.496094 48 19.367188 47.558594 20 46.878906 C 20.632813 47.558594 21.507813 48 22.5 48 C 23.441406 48 24.351563 47.617188 25.007813 46.984375 C 25.664063 47.621094 26.566406 48 27.5 48 C 28.464844 48 29.390625 47.597656 30.050781 46.9375 C 30.679688 47.585938 31.53125 48 32.5 48 C 34.300781 48 36 46.628906 36 44.707031 L 36 31.890625 C 36.984375 31.660156 37.863281 31.03125 38.359375 30.078125 L 38.382813 30.039063 L 40.652344 24.492188 L 40.613281 24.574219 C 41.125 23.585938 41.117188 22.410156 40.609375 21.425781 L 38.777344 16.402344 C 39.703125 15.710938 40.214844 14.492188 39.90625 13.242188 C 39.636719 12.167969 38.800781 11.34375 37.722656 11.085938 C 37.53125 11.039063 37.335938 11.011719 37.144531 11.003906 Z M 36.859375 13.007813 C 36.980469 12.992188 37.113281 12.996094 37.261719 13.03125 C 37.578125 13.105469 37.882813 13.410156 37.964844 13.726563 C 38.097656 14.25 37.863281 14.652344 37.5 14.863281 C 37.582031 14.816406 37.441406 14.894531 37.304688 14.957031 C 37.167969 15.023438 36.980469 15.113281 36.753906 15.21875 C 36.304688 15.433594 35.707031 15.714844 35.058594 16.015625 C 33.761719 16.621094 32.269531 17.308594 31.375 17.722656 C 30.984375 17.90625 30.554688 18 30.121094 18 L 25 18 C 24.449219 18 24 18.449219 24 19 L 24 44.660156 C 24 44.667969 24 44.675781 24 44.683594 C 24 44.691406 24 44.699219 24 44.707031 C 24 45.351563 23.242188 46 22.5 46 C 21.777344 46 21.148438 45.421875 21.003906 44.617188 C 21.003906 44.609375 21.003906 44.597656 21 44.589844 L 21 32 C 21.003906 31.726563 20.898438 31.46875 20.707031 31.277344 C 20.515625 31.085938 20.257813 30.980469 19.984375 30.984375 C 19.433594 30.992188 18.996094 31.445313 19 32 L 19 44.601563 C 18.863281 45.414063 18.226563 46 17.5 46 C 16.757813 46 16 45.351563 16 44.707031 L 16 21 C 16.003906 20.726563 15.898438 20.46875 15.707031 20.277344 C 15.515625 20.085938 15.253906 19.980469 14.984375 19.984375 C 14.433594 19.992188 13.992188 20.445313 14 21 L 14 29.769531 C 13.757813 29.628906 13.554688 29.421875 13.417969 29.167969 L 11.199219 23.738281 C 11.1875 23.710938 11.175781 23.683594 11.160156 23.65625 C 10.9375 23.21875 10.945313 22.726563 11.1875 22.296875 C 11.214844 22.25 11.238281 22.195313 11.257813 22.144531 L 13.214844 16.785156 C 13.492188 16.308594 14.054688 16 14.625 16 L 29.566406 16 C 29.988281 16 30.414063 15.910156 30.800781 15.734375 C 31.464844 15.433594 32.855469 14.800781 34.09375 14.238281 C 34.710938 13.957031 35.289063 13.691406 35.71875 13.496094 C 35.933594 13.398438 36.113281 13.316406 36.238281 13.253906 C 36.304688 13.226563 36.355469 13.203125 36.394531 13.1875 C 36.433594 13.167969 36.371094 13.207031 36.519531 13.121094 L 36.519531 13.125 C 36.625 13.066406 36.734375 13.023438 36.859375 13.007813 Z M 36.984375 17.324219 L 38.769531 22.21875 L 38.8125 22.292969 C 39.054688 22.722656 39.0625 23.214844 38.839844 23.652344 L 38.816406 23.691406 L 36.582031 29.15625 C 36.445313 29.414063 36.242188 29.621094 36 29.765625 L 36 21 C 36.003906 20.726563 35.898438 20.46875 35.707031 20.277344 C 35.515625 20.085938 35.253906 19.980469 34.984375 19.984375 C 34.433594 19.992188 33.992188 20.445313 34 21 L 34 44.707031 C 34 45.351563 33.242188 46 32.5 46 C 31.773438 46 31.140625 45.417969 31 44.609375 L 31 32 C 31.003906 31.726563 30.898438 31.46875 30.707031 31.277344 C 30.515625 31.085938 30.253906 30.980469 29.984375 30.984375 C 29.433594 30.992188 28.992188 31.445313 29 32 L 29 44.558594 C 28.996094 44.609375 28.996094 44.667969 29 44.71875 C 28.988281 45.363281 28.238281 46 27.5 46 C 26.757813 46 26 45.375 26 44.660156 L 26 20 L 30.121094 20 C 30.84375 20 31.558594 19.84375 32.21875 19.535156 C 33.109375 19.125 34.601563 18.433594 35.902344 17.828125 C 36.3125 17.636719 36.636719 17.484375 36.984375 17.324219 Z "/>
</g>
</svg>

<?xml version="1.0" encoding="utf-8"?>
<!-- Generator: Adobe Illustrator 17.0.0, SVG Export Plug-In . SVG Version: 6.00 Build 0)  -->
<!DOCTYPE svg PUBLIC "-//W3C//DTD SVG 1.1//EN" "http://www.w3.org/Graphics/SVG/1.1/DTD/svg11.dtd">
<svg version="1.1" id="Layer_1" xmlns="http://www.w3.org/2000/svg" xmlns:xlink="http://www.w3.org/1999/xlink" x="0px" y="0px"
	 width="50px" height="50px" viewBox="0 0 50 50" enable-background="new 0 0 50 50" xml:space="preserve">
<path d="M19,12c2.75,0,5-2.254,5-5c0-2.75-2.25-5-5-5s-5,2.25-5,5C14,9.746,16.25,12,19,12z M19,4c1.668,0,3,1.328,3,3
	c0,1.668-1.332,2.996-3,3c-1.668-0.004-3-1.332-3-3C16,5.328,17.332,4,19,4z M40.609,21.426l-1.832-5.023
	c0.926-0.691,1.438-1.91,1.129-3.16c-0.27-1.074-1.105-1.898-2.184-2.156c-0.191-0.047-0.387-0.074-0.578-0.082
	c-0.574-0.027-1.129,0.109-1.598,0.371c-0.031,0.012-0.082,0.035-0.145,0.063c-0.125,0.059-0.301,0.141-0.516,0.238
	c-0.43,0.199-1.008,0.461-1.625,0.742c-1.234,0.563-2.625,1.195-3.285,1.492c-0.129,0.063-0.262,0.09-0.41,0.09H14.625
	c-1.262,0-2.508,0.637-3.172,1.813c-0.027,0.047-0.051,0.094-0.066,0.145l-1.996,5.48c-0.508,0.98-0.516,2.156-0.004,3.141
	l-0.039-0.082L11.598,30c0.012,0.031,0.027,0.059,0.043,0.086c0.496,0.953,1.375,1.582,2.359,1.816v12.805
	C14,46.629,15.699,48,17.5,48c0.996,0,1.867-0.441,2.5-1.121C20.633,47.559,21.508,48,22.5,48c0.941,0,1.852-0.383,2.508-1.016
	C25.664,47.621,26.566,48,27.5,48c0.965,0,1.891-0.402,2.551-1.063C30.68,47.586,31.531,48,32.5,48c1.801,0,3.5-1.371,3.5-3.293
	V31.891c0.984-0.23,1.863-0.859,2.359-1.813l0.023-0.039l2.27-5.547l-0.039,0.082C41.125,23.586,41.117,22.41,40.609,21.426z M25,18
	c-0.551,0-1,0.449-1,1v25.66c0,0.008,0,0.016,0,0.023s0,0.016,0,0.023C24,45.352,23.242,46,22.5,46
	c-0.723,0-1.352-0.578-1.496-1.383c0-0.008,0-0.02-0.004-0.027V32c0.004-0.273-0.102-0.531-0.293-0.723s-0.449-0.297-0.723-0.293
	C19.434,30.992,18.996,31.445,19,32v12.602C18.863,45.414,18.227,46,17.5,46c-0.742,0-1.5-0.648-1.5-1.293V21
	c0.004-0.273-0.102-0.531-0.293-0.723s-0.453-0.297-0.723-0.293C14.434,19.992,13.992,20.445,14,21v8.77
	c-0.242-0.141-0.445-0.348-0.582-0.602l-2.219-5.43c-0.012-0.027-0.023-0.055-0.039-0.082c-0.223-0.438-0.215-0.93,0.027-1.359
	c0.027-0.047,0.051-0.102,0.07-0.152l1.957-5.359c0.277-0.477,0.84-0.785,1.41-0.785h14.941c0.422,0,0.848-0.09,1.234-0.266
	c0.664-0.301,2.055-0.934,3.293-1.496c0.617-0.281,1.195-0.547,1.625-0.742c0.215-0.098,0.395-0.18,0.52-0.242
	c0.066-0.027,0.117-0.051,0.156-0.066c0.039-0.02-0.023,0.02,0.125-0.066v0.004c0.105-0.059,0.215-0.102,0.34-0.117
	c0.121-0.016,0.254-0.012,0.402,0.023c0.316,0.074,0.621,0.379,0.703,0.695c0.132,0.519-0.099,0.919-0.457,1.131
	c-0.03,0.015-0.114,0.059-0.203,0.1c-0.137,0.066-0.324,0.156-0.551,0.262c-0.449,0.215-1.047,0.496-1.695,0.797
	c-1.297,0.605-2.789,1.293-3.684,1.707C30.984,17.906,30.555,18,30.121,18H25z M38.84,23.652l-0.023,0.039l-2.234,5.465
	c-0.137,0.258-0.34,0.465-0.582,0.609V21c0.004-0.273-0.102-0.531-0.293-0.723s-0.453-0.297-0.723-0.293
	C34.434,19.992,33.992,20.445,34,21v23.707C34,45.352,33.242,46,32.5,46c-0.727,0-1.359-0.582-1.5-1.391V32
	c0.004-0.273-0.102-0.531-0.293-0.723s-0.453-0.297-0.723-0.293C29.434,30.992,28.992,31.445,29,32v12.559
	c-0.004,0.051-0.004,0.109,0,0.16C28.988,45.363,28.238,46,27.5,46c-0.742,0-1.5-0.625-1.5-1.34V20h4.121
	c0.723,0,1.438-0.156,2.098-0.465c0.891-0.41,2.383-1.102,3.684-1.707c0.41-0.191,0.734-0.344,1.082-0.504l1.785,4.895l0.043,0.074
	C39.055,22.723,39.063,23.215,38.84,23.652z M30,12c2.75,0,5-2.25,5-5s-2.25-5-5-5s-5,2.25-5,5S27.25,12,30,12z M30,4
	c1.668,0,3,1.332,3,3s-1.332,3-3,3s-3-1.332-3-3S28.332,4,30,4z"/>
</svg>
